!!!!SEGMENT: pl-cz--i-167--001_zebrowski-marcin-jozef--sonata-pro-processione-in-e.krn
!!!cenid: 17xx:2315
!!!COM: Żebrowski, Marcin Józef
!!!COM-rismid: pe30020322
!!!CDT: 1702-1770/06/29
!!!CNT: Polish
!!!OTL: Sonata pro processione in e
!!!PDT:
!!!AGN:
!!!SMS-siglum: PL-CZ
!!!SMS-shelfmark: I-167
!!!SMS-shelfwork: 001 W
!!!SMS-variant:
!!!SMS-altvar:
!!!NIFC-rismid: 300033519
!!!URL-scan: https://repozytorium.nifc.pl/islandora/object/pl-cz%3A963/datastream/PDF/view
!!!ONB-nifc: UWAGA: w zbiorze 2 Sonaty: 1. in e, 2. in A. Partia organów na skanach 0002 i 0005
!!!key: e
**kern	**fba	**kern	**kern	**kern	**kern	**kern	**kern
*	*	*group3	*group3	*group2	*group2	*group1	*group1
*part7	*	*part6	*part5	*part4	*part3	*part2	*part1
*staff7	*	*staff6	*staff5	*staff4	*staff3	*staff2	*staff1
*I"Organo.	*	*I"[Violino secundo]	*I"Violino Primo.	*[Corno secundo]	*I"Corno Primo ex g Cameralis toni.	*I"Hoboe Secondo.	*I"[Oboe primo]
*I'org	*	*I'vl 2	*I'vl 1	*I'cor 2	*I'cor 1 	*I'ob 2	*I'ob 1
*Iorgan	*	*Ivioln	*Ivioln	*Icor	*Icor	*Ioboe	*Ioboe
*ICklav	*	*ICstr	*ICstr	*ICbras	*ICbras	*ICww	*ICww
*IGcont	*	*	*	*	*	*	*
*>[A,A,B,B]	*	*>[A,A,B,B]	*>[A,A,B,B]	*>[A,A,B,B]	*>[A,A,B,B]	*>[A,A,B,B]	*>[A,A,B,B]
*clefF4	*	*	*clefG2	*	*clefG2	*clefG2	*
*	*	*	*	*	*ITrd3c5	*	*
*k[f#]	*	*	*k[f#]	*	*k[f#]	*k[f#]	*
*e:	*	*	*e:	*	*e:	*e:	*
*M2/4	*	*	*M2/4	*	*M2/4	*M2/4	*
=1	=1	=1	=1	=1	=1	=1	=1
*>A	*	*>A	*>A	*>A	*>A	*>A	*>A
!	!	!	!LO:TX:a:t=P:mixedbeam:problem	!	!	!	!
!LO:TX:a:t=Andante	!	!LO:TX:t=P:problem=partia na stronie tytułowej, brak głosu	!LO:TX:a:I:t=Andante.	!LO:TX:t=P:problem=partia na stronie tytułowej, brak głosu	!LO:TX:a:t=Andante.	!LO:TX:a:t=Andante.	!LO:TX:t=P:problem=partia na stronie tytułowej, brak głosu
4E\	.	2ryy	8.ee/L 8.b/ 8.e/	2ryy	4b\	8g/L	2ryy
.	.	.	.	.	.	[8b/J	.
.	.	.	16bb\Jk	.	.	.	.
*	*	*	*Xtuplet	*	*	*Xtuplet	*
!LO:TX:a:t=P:problem=mixedbeam	!	!	!	!	!	!	!
8B\L	6 4	.	(24gg\LL	.	4r	24b/LL]	.
.	.	.	24ee\)	.	.	24g/	.
.	.	.	24gg\JJ|	.	.	24b/JJ	.
8BB/J	5 #	.	24ff#\LL	.	.	24a/LL	.
.	.	.	24dd#X\	.	.	24f#/	.
.	.	.	24ff#\JJ	.	.	24a/JJ	.
=2	=2	=2	=2	=2	=2	=2	=2
!	!	!	!	!	!LO:TX:a:t=1.	!	!
.	.	.	.	.	.	8qqa/	.
4E\	.	2ryy	8.ee/L 8.b/ 8.e/	2ryy	2r	4g/	2ryy
.	.	.	16b/Jk	.	.	.	.
!LO:TX:a:t=P:problem=mixedbeam	!	!	!	!	!	!	!
8B\L	6 4	.	(24g/LL	.	.	4r	.
.	.	.	24e/)	.	.	.	.
.	.	.	24g/JJ|	.	.	.	.
8BB/J	5 #	.	24f#/LL	.	.	.	.
.	.	.	24d#X/	.	.	.	.
.	.	.	24f#/JJ	.	.	.	.
=3	=3	=3	=3	=3	=3	=3	=3
!	!	!	!LO:TX:a:t=P:problem=mixedbeam	!	!	!	!
4E\	.	2ryy	8.ee/L 8.b/ 8.e/	2ryy	4b\	8r	2ryy
.	.	.	.	.	.	16r	.
.	.	.	16ddd\Jk	.	.	16gg\	.
!LO:TX:a:t=P:problem=mixedbeam	!	!	!	!	!	!	!
8B\L	6 4	.	24gg\LL	.	4r	24b/LL	.
.	.	.	24ee\	.	.	24g/	.
.	.	.	24gg\JJ	.	.	24b/JJ	.
8BB/J	7 #	.	24ff#\LL	.	.	24a/LL	.
.	.	.	24dd#X\	.	.	24f#/	.
.	.	.	24ff#\JJ	.	.	24a/JJ	.
=4	=4	=4	=4	=4	=4	=4	=4
!	!	!	!	!	!LO:TX:a:t=1.	!	!
.	.	.	.	.	.	8qqa/	.
4E\	.	2ryy	8ee\L|	2ryy	2r	4g/	2ryy
.	.	.	8b\J|	.	.	.	.
*	*	*	*Xbrackettup	*	*	*	*
*	*	*	*tuplet	*	*	*	*
!	!	!	!LO:TX:a:t=P:problem=klamra łukowa	!	!	!	!
!	!	!	!LO:TUP:a	!	!	!	!
4F#\	7	.	24r	.	.	4r	.
.	.	.	24a\LL	.	.	.	.
.	.	.	24b\	.	.	.	.
.	.	.	24cc\	.	.	.	.
.	.	.	24b\	.	.	.	.
.	.	.	24a\JJ	.	.	.	.
=5	=5	=5	=5	=5	=5	=5	=5
!	!	!	!LO:TUP:b	!	!	!LO:TX:a:t=6.	!
4B\	#	2ryy	24f#/LL|	2ryy	4b\	0r	2ryy
.	.	.	(24f#/	.	.	.	.
.	.	.	24g/	.	.	.	.
.	.	.	24a/	.	.	.	.
.	.	.	24g/)	.	.	.	.
.	.	.	24f#/JJ	.	.	.	.
4BB/	7	.	16d#X/KL	.	4b\	.	.
.	.	.	(8a/	.	.	.	.
.	.	.	32g/LL	.	.	.	.
.	.	.	32f#/JJJ)	.	.	.	.
=6	=6	=6	=6	=6	=6	=6	=6
4E\	.	2ryy	16g/LL	2ryy	4b\	.	2ryy
.	.	.	16a/J	.	.	.	.
!	!	!	!LO:N:vis=8.	!	!	!	!
.	.	.	8b/J	.	.	.	.
!	!	!	!LO:TUP:b	!	!	!	!
!	!	!	!LO:TX:a:t=P:problem=klamra łukowa	!	!	!	!
4r	.	.	24ryy	.	4r	.	.
.	.	.	24a/LL	.	.	.	.
.	.	.	24b/	.	.	.	.
.	.	.	24cc/	.	.	.	.
.	.	.	24b/	.	.	.	.
.	.	.	24a/JJ	.	.	.	.
=7	=7	=7	=7	=7	=7	=7	=7
!	!	!	!LO:TUP:b	!	!	!	!
4B\	#	2ryy	24f#/LL|	2ryy	4b\	.	2ryy
.	.	.	(24f#/	.	.	.	.
.	.	.	24g/	.	.	.	.
.	.	.	24a/	.	.	.	.
.	.	.	24g/	.	.	.	.
.	.	.	24f#/JJ)	.	.	.	.
4BB/	7	.	16d#X/KL	.	4b\	.	.
.	.	.	(8cc/	.	.	.	.
.	.	.	32b/LL	.	.	.	.
.	.	.	32a/JJJ)	.	.	.	.
=8	=8	=8	=8	=8	=8	=8	=8
*	*	*	*Xtuplet	*	*	*	*
!LO:TX:a:t=P:problem=mixedbeam	!	!	!	!	!	!	!
8E\L	.	2ryy	(24g/LL	2ryy	4b\	.	2ryy
.	.	.	24b/)	.	.	.	.
.	.	.	24e/JJ|	.	.	.	.
8BB/J	7 #	.	(24f#/LL	.	.	.	.
.	.	.	24a/)	.	.	.	.
.	.	.	24d#X/JJ|	.	.	.	.
.	.	.	8qqd#/	.	.	.	.
16.EE/LL	.	.	4e/	.	4r	.	.
32BB/JJk	.	.	.	.	.	.	.
16.E\LL	.	.	.	.	.	.	.
32F#\JJk	.	.	.	.	.	.	.
!	!	!	!LO:LB:g=original	!	!	!	!
=9	=9	=9	=9	=9	=9	=9	=9
!	!	!	!LO:TX:a:t=4.	!	!LO:TX:b:i:t=Solo.	!	!
4G\	.	2ryy	0r	2ryy	8.g\L	1r	2ryy
.	.	.	.	.	16dd\Jk	.	.
*	*	*	*	*	*Xtuplet	*	*
8r	.	.	.	.	24dd\LL	.	.
.	.	.	.	.	24b\	.	.
.	.	.	.	.	24dd\JJ	.	.
8D/	7	.	.	.	24cc\LL	.	.
.	.	.	.	.	24a\	.	.
.	.	.	.	.	24cc\JJ	.	.
=10	=10	=10	=10	=10	=10	=10	=10
4G\	.	2ryy	.	2ryy	16b\LL	.	2ryy
.	.	.	.	.	16cc\J	.	.
.	.	.	.	.	[8dd\J	.	.
8r	.	.	.	.	24dd\LL]	.	.
.	.	.	.	.	24b\	.	.
.	.	.	.	.	24dd\JJ	.	.
8D/	7	.	.	.	24cc\LL	.	.
.	.	.	.	.	24a\	.	.
.	.	.	.	.	24cc\JJ	.	.
!	!	!	!	!	!LO:LB:g=original	!	!
=11	=11	=11	=11	=11	=11	=11	=11
!LO:TX:a:t=P:problem=mixedbeam	!	!	!	!	!	!LO:TX:b:i:t=Solo.	!
8GG/L	.	2ryy	.	2ryy	4b\	8.b\L	2ryy
8G\	.	.	.	.	.	.	.
.	.	.	.	.	.	16bb\Jk	.
8F#\	6 5	.	.	.	4r	24aa\LL	.
.	.	.	.	.	.	24ff#\	.
.	.	.	.	.	.	24aa\JJ	.
!LO:SIC:v:t=custos D	!	!	!	!	!	!	!
8G\J	.	.	.	.	.	24gg\LL	.
.	.	.	.	.	.	24dd\	.
.	.	.	.	.	.	24gg\JJ	.
!LO:LB:g=original	!	!	!	!	!	!	!
=12	=12	=12	=12	=12	=12	=12	=12
!	!	!	!	!	!LO:TX:a:t=1.	!LO:TX:a:t=P:problem=mixedbeam	!
.	.	.	.	.	.	8qqgg/	.
8D\L	.	2ryy	.	2ryy	2r	8.ff#\L	2ryy
8G\	.	.	.	.	.	.	.
.	.	.	.	.	.	16b/Jk	.
8F#\	6 5	.	.	.	.	24a/LL	.
.	.	.	.	.	.	24f#/	.
.	.	.	.	.	.	24a/JJ	.
8G\J	.	.	.	.	.	24g/LL	.
.	.	.	.	.	.	24d/	.
.	.	.	.	.	.	24g/JJ	.
=13	=13	=13	=13	=13	=13	=13	=13
.	.	.	.	.	.	8qqg/	.
8D\L	.	2ryy	24a/LL	2ryy	8r	4.f#/	2ryy
.	.	.	24f#/	.	.	.	.
.	.	.	24d/JJ	.	.	.	.
8D\	.	.	24f#/LL	.	16a\LL	.	.
.	.	.	24a/	.	.	.	.
.	.	.	.	.	16a\JJ	.	.
.	.	.	24dd/JJ	.	.	.	.
8D\	7	.	(24cc\LL	.	8a\L	.	.
.	.	.	24a\)	.	.	.	.
.	.	.	24cc\JJ|	.	.	.	.
8D\J	6 4	.	24b/LL	.	8b\J	8g/	.
.	.	.	24g/	.	.	.	.
.	.	.	24b/JJ	.	.	.	.
=14	=14	=14	=14	=14	=14	=14	=14
8D\L	5 3	2ryy	24a/LL	2ryy	4.cc\	4.a/	2ryy
.	.	.	24f#/	.	.	.	.
.	.	.	24d/JJ	.	.	.	.
8D\	.	.	24f#/LL	.	.	.	.
.	.	.	24a/	.	.	.	.
.	.	.	24dd/JJ	.	.	.	.
8D\	7	.	(24cc\LL	.	.	.	.
.	.	.	24a\)	.	.	.	.
.	.	.	24cc\JJ|	.	.	.	.
8D\J	6 4	.	24b/LL	.	8b\	8g/	.
.	.	.	24g/	.	.	.	.
.	.	.	24b/JJ	.	.	.	.
!	!	!	!	!	!	!LO:LB:g=original	!
=15	=15	=15	=15	=15	=15	=15	=15
!	!	!	!	!	!LO:TX:a:t=P:problem=mixedbeam	!	!
8D\L	5 3	2ryy	24cc\LL	2ryy	8a\L	8a\L	2ryy
.	.	.	24a\	.	.	.	.
.	.	.	24cc\JJ	.	.	.	.
8D\|	.	.	24dd\LL	.	16d/L	8b\	.
.	.	.	24b\	.	.	.	.
.	.	.	.	.	16d/JJ	.	.
.	.	.	24dd\JJ	.	.	.	.
8D\|	.	.	24ee\LL	.	4d/	8cc\	.
.	.	.	24cc\	.	.	.	.
.	.	.	24ee\JJ	.	.	.	.
8D\J|	.	.	24ff#\LL	.	.	8dd\J	.
.	.	.	24dd\	.	.	.	.
.	.	.	24ff#\JJ	.	.	.	.
=16	=16	=16	=16	=16	=16	=16	=16
!	!	!	!LO:TX:a:t=t	!	!	!	!
8G\L	.	2ryy	8.gg\L	2ryy	4r	8b\L	2ryy
8A\	.	.	.	.	.	8cc\	.
.	.	.	32ff#\LL	.	.	.	.
.	.	.	32ee\JJJ	.	.	.	.
8B\	6	.	8dd\L	.	8r	8dd\	.
8c\J	3	.	8cc\J	.	8cc\	8ee\J	.
=17	=17	=17	=17	=17	=17	=17	=17
!LO:TX:a:t=P:problem=mixedbeam	!	!	!	!	!	!	!
.	.	.	.	.	.	8qqee/	.
8d\L	6 4	2ryy	24b/LL	2ryy	4b\	4.dd\	2ryy
.	.	.	24dd/	.	.	.	.
.	.	.	24cc/JJ	.	.	.	.
8d\	.	.	24b/LL	.	.	.	.
.	.	.	24a/	.	.	.	.
.	.	.	24g/JJ	.	.	.	.
!	!	!	!LO:TX:a:t=t	!	!LO:TX:a:t=t	!	!
.	.	.	8qqg/	.	.	.	.
8D/	5 3	.	4a/	.	4a\	.	.
8D/J	.	.	.	.	.	8cc\	.
=18	=18	=18	=18	=18	=18	=18	=18
4G\	.	2ryy	(16g/LL	2ryy	4g\	4b/	2ryy
.	.	.	16d/)	.	.	.	.
.	.	.	(16d/	.	.	.	.
.	.	.	16e/JJ)	.	.	.	.
8r	.	.	(16e/LL	.	8r	8r	.
.	.	.	16f#/)	.	.	.	.
8D/	.	.	(16f#/	.	8a\	8a/	.
.	.	.	16g/JJ)	.	.	.	.
!	!	!	!LO:LB:g=original	!	!	!	!
=19	=19	=19	=19	=19	=19	=19	=19
4G\	.	2ryy	(16g/LL	2ryy	4b\	4g/	2ryy
.	.	.	16B/)	.	.	.	.
.	.	.	(16B/	.	.	.	.
.	.	.	16c/JJ)	.	.	.	.
8r	.	.	(16c/LL	.	8r	8r	.
.	.	.	16A/)	.	.	.	.
8D/	.	.	(16A/	.	8a\	8a/	.
.	.	.	16B/JJ)	.	.	.	.
=20	=20	=20	=20	=20	=20	=20	=20
!LO:TX:a:t=P:problem=mixedbeam	!	!	!	!	!	!	!
16GG/LL	.	2ryy	16B/	2ryy	16b\LL	8g/	2ryy
16G\|	.	.	8bb\	.	16cc\J	.	.
16F#\|	.	.	.	.	8dd\J	4gg\	.
16E\JJ|	.	.	8bb\	.	.	.	.
16D/LL|	6 4	.	.	.	8dd\L	.	.
16C/|	.	.	8bb\	.	.	.	.
16BB/|	.	.	.	.	8dd\J	[8gg\	.
16AA/JJ|	.	.	[16bb\	.	.	.	.
=21	=21	=21	=21	=21	=21	=21	=21
8GG/L	.	2ryy	8bb\L]	2ryy	4.dd\	8gg\L]	2ryy
8AA/	.	.	16aa\L	.	.	16ff#\L	.
.	.	.	16gg\JJ	.	.	16ee\JJ	.
8BB/	6	.	16ff#\LL	.	.	16dd\LL	.
.	.	.	16ee\	.	.	16cc\	.
8C/J	.	.	16dd\	.	8cc\	16b\	.
.	.	.	16cc\JJ	.	.	16a\JJ	.
!LO:LB:g=original	!	!	!	!	!	!	!
=22	=22	=22	=22	=22	=22	=22	=22
8D/|	.	2ryy	8b/|	2ryy	8b\|	8a/|	2ryy
8r	.	.	8r	.	8r	8r	.
!	!	!	!	!	!LO:LB:g=original	!	!
!	!	!	!LO:TX:a:t=t	!	!LO:TX:a:t=t	!LO:TX:a:t=t	!
.	.	.	8qqg/	.	.	.	.
8D/L	.	.	4a/	.	4a\	4g/	.
8DD/J	.	.	.	.	.	.	.
=23	=23	=23	=23	=23	=23	=23	=23
*	*	*	*	*	*2\right	*	*
!LO:TX:a:t=P:problem=mixedbeam	!	!	!	!	!	!	!
8GG/L|	.	2ryy	2g/	2ryy	2g\	2g/	2ryy
8G\J|	.	.	.	.	.	.	.
4GG/	.	.	.	.	.	.	.
=24:|!|:	=24:|!|:	=24:|!|:	=24:|!|:	=24:|!|:	=24:|!|:	=24:|!|:	=24:|!|:
*>B	*	*>B	*>B	*>B	*>B	*>B	*>B
!	!	!	!LO:TX:a:t=6.	!	!LO:TX:a:t=2.	!LO:TX:b:i:t=Solo.	!
4G\	.	2ryy	0r	2ryy	1r	(16b\LL	2ryy
.	.	.	.	.	.	16dd\J)	.
.	.	.	.	.	.	[8dd\J	.
!LO:TX:a:t=P:problem=mixedbeam	!	!	!	!	!	!	!
8d\L	6 4	.	.	.	.	24dd\LL]	.
.	.	.	.	.	.	24b\	.
.	.	.	.	.	.	24dd\JJ	.
8D/J	7 3	.	.	.	.	24cc\LL	.
.	.	.	.	.	.	24a\	.
.	.	.	.	.	.	24cc\JJ	.
=25	=25	=25	=25	=25	=25	=25	=25
.	.	.	.	.	.	8qqcc/	.
4G\	.	2ryy	.	2ryy	.	4b/	2ryy
*	*	*	*	*	*	*Xbrackettup	*
*	*	*	*	*	*	*tuplet	*
!	!	!	!	!	!	!LO:LB:g=original	!
!	!	!	!	!	!	!LO:TUP:b	!
!	!	!	!	!	!	!LO:TX:t=P:problem=klamra łukowa	!
4A\	7	.	.	.	.	24r	.
.	.	.	.	.	.	24a/LL	.
.	.	.	.	.	.	24b/	.
.	.	.	.	.	.	24cc/	.
.	.	.	.	.	.	24b/	.
.	.	.	.	.	.	24a/JJ	.
=26	=26	=26	=26	=26	=26	=26	=26
!	!	!	!	!	!	!LO:TUP:b	!
4D/	3	2ryy	.	2ryy	4.cc\	24f#/LL|	2ryy
.	.	.	.	.	.	(24f#/	.
.	.	.	.	.	.	24g/	.
.	.	.	.	.	.	24a/	.
.	.	.	.	.	.	24g/	.
.	.	.	.	.	.	24f#/JJ)	.
4DD/	7	.	.	.	.	16d/KL|	.
.	.	.	.	.	.	(8a/	.
.	.	.	.	.	8cc\	.	.
.	.	.	.	.	.	32g/LL	.
.	.	.	.	.	.	32f#/JJJ)	.
=27	=27	=27	=27	=27	=27	=27	=27
4GG/	.	2ryy	.	2ryy	16b\LL	(16g/LL	2ryy
.	.	.	.	.	16cc\J	16a/J	.
!	!	!	!	!	!	!LO:N:vis=8.	!
.	.	.	.	.	8dd\J	8b/J)	.
!	!	!	!	!	!	!LO:TUP:b	!
!	!	!	!	!	!	!LO:TX:t=P:problem=klamra łukowa	!
4r	.	.	.	.	4r	24r	.
.	.	.	.	.	.	24a/LL	.
.	.	.	.	.	.	24b/	.
.	.	.	.	.	.	24cc/	.
.	.	.	.	.	.	24b/	.
.	.	.	.	.	.	24a/JJ	.
=28	=28	=28	=28	=28	=28	=28	=28
!	!	!	!	!	!	!LO:TUP:b	!
4D/	.	2ryy	1r	2ryy	4.cc\	24f#/LL|	2ryy
.	.	.	.	.	.	(24f#/	.
.	.	.	.	.	.	24g/	.
.	.	.	.	.	.	24a/	.
.	.	.	.	.	.	24g/	.
.	.	.	.	.	.	24f#/JJ)	.
4DD/	7	.	.	.	.	16d/KL|	.
.	.	.	.	.	.	(8cc/	.
.	.	.	.	.	8cc\	.	.
.	.	.	.	.	.	32b/LL	.
.	.	.	.	.	.	32a/JJJ)	.
=29	=29	=29	=29	=29	=29	=29	=29
8GG/L	.	2ryy	.	2ryy	8b\L	(8g/L	2ryy
8D/J	.	.	.	.	8a\J	16.f#/L)	.
.	.	.	.	.	.	32cc/JJk|	.
.	.	.	.	.	.	8qqcc/	.
16.G\LL	.	.	.	.	4g\	4b/	.
32A\K	.	.	.	.	.	.	.
16.G\	.	.	.	.	.	.	.
32F#\JJk	.	.	.	.	.	.	.
=30	=30	=30	=30	=30	=30	=30	=30
!	!	!	!LO:TX:a:t=P:problem=mixedbeam	!	!	!	!
4E\	.	2ryy	8.ee/L 8.b/ 8.e/	2ryy	4b\	8g/L	2ryy
.	.	.	.	.	.	[8b/J	.
.	.	.	16bb\Jk	.	.	.	.
*	*	*	*	*	*	*Xtuplet	*
!LO:TX:a:t=P:problem=mixedbeam	!	!	!	!	!	!	!
8B\L	6 4	.	(24gg\LL	.	4r	24b/LL]	.
.	.	.	24ee\)	.	.	24g/	.
.	.	.	24gg\JJ|	.	.	24b/JJ	.
8BB/J	5 #3r	.	24ff#\LL	.	.	24a/LL	.
.	.	.	24dd#X\	.	.	24f#/	.
.	.	.	24ff#\JJ	.	.	24a/JJ	.
=31	=31	=31	=31	=31	=31	=31	=31
!	!	!	!	!	!LO:TX:a:t=1.	!	!
.	.	.	.	.	.	8qqa/	.
4E\	.	2ryy	8.ee/L 8.b/ 8.e/	2ryy	2r	4g/	2ryy
.	.	.	16b/Jk	.	.	.	.
!LO:TX:a:t=P:problem=mixedbeam	!	!	!	!	!	!	!
8B\L	6 4	.	(24g/LL	.	.	4r	.
.	.	.	24e/)	.	.	.	.
.	.	.	24g/JJ|	.	.	.	.
8BB/J	5 #	.	24f#/LL	.	.	.	.
.	.	.	24d#X/	.	.	.	.
.	.	.	24f#/JJ	.	.	.	.
!	!	!	!	!	!	!LO:LB:g=original	!
=32	=32	=32	=32	=32	=32	=32	=32
!	!	!	!LO:TX:a:t=P:problem=mixedbeam	!	!	!	!
4E\	.	2ryy	8.ee/L 8.b/ 8.e/	2ryy	4b\	8r	2ryy
.	.	.	.	.	.	16r	.
.	.	.	16bb\Jk	.	.	16gg\	.
!LO:TX:a:t=P:problem=mixedbeam	!	!	!	!	!	!	!
8B\L	6 4	.	(24gg\LL	.	4r	24b/LL	.
.	.	.	24ee\)	.	.	24g/	.
.	.	.	24gg\JJ|	.	.	24b/JJ	.
8BB/J	7 #	.	24ff#\LL	.	.	24a/LL	.
.	.	.	24dd#X\	.	.	24f#/	.
.	.	.	24ff#\JJ	.	.	24a/JJ	.
!	!	!	!LO:LB:g=original	!	!	!	!
=33	=33	=33	=33	=33	=33	=33	=33
!	!	!	!	!	!LO:TX:a:t=1.	!	!
.	.	.	.	.	.	8qqa/	.
4E\	.	2ryy	8ee\L|	2ryy	2r	4g/	2ryy
.	.	.	8b\J|	.	.	.	.
*	*	*	*tuplet	*	*	*	*
!	!	!	!LO:TX:a:t=P:problem=klamra łukowa	!	!	!	!
!	!	!	!LO:TUP:b	!	!	!	!
4F#\	7	.	24r	.	.	4r	.
.	.	.	24a/LL	.	.	.	.
.	.	.	24b/	.	.	.	.
.	.	.	24cc/	.	.	.	.
.	.	.	24b/	.	.	.	.
.	.	.	24a/JJ	.	.	.	.
!LO:LB:g=original	!	!	!	!	!	!	!
=34	=34	=34	=34	=34	=34	=34	=34
!	!	!	!LO:TUP:b	!	!	!	!
!	!	!	!	!	!	!LO:TX:a:t=4.	!
4B\	#	2ryy	24f#/LL|	2ryy	4b\	0r	2ryy
.	.	.	(24f#/	.	.	.	.
.	.	.	24g/	.	.	.	.
.	.	.	24a/	.	.	.	.
.	.	.	24g/	.	.	.	.
.	.	.	24f#/JJ)	.	.	.	.
4BB/	7	.	(16d#X/KL	.	4b\	.	.
.	.	.	8a/	.	.	.	.
.	.	.	32g/LL)	.	.	.	.
.	.	.	32f#/JJJ	.	.	.	.
=35	=35	=35	=35	=35	=35	=35	=35
4E\	.	2ryy	16g/LL	2ryy	4b\	.	2ryy
.	.	.	16a/J	.	.	.	.
!	!	!	!LO:N:vis=8.	!	!	!	!
.	.	.	8b/J	.	.	.	.
!	!	!	!LO:TX:a:t=P:problem=klamra łukowa	!	!	!	!
!	!	!	!LO:TUP:b	!	!	!	!
4r	.	.	24ryy	.	4r	.	.
.	.	.	24a/LL	.	.	.	.
.	.	.	24b/	.	.	.	.
.	.	.	24cc/	.	.	.	.
.	.	.	24b/	.	.	.	.
.	.	.	24a/JJ	.	.	.	.
=36	=36	=36	=36	=36	=36	=36	=36
!	!	!	!LO:TUP:b	!	!	!	!
!	!	!	!LO:TX:a:t=P:problem=klamra łukowa	!	!	!	!
4B\	#	2ryy	24f#/LL	2ryy	4b\	.	2ryy
.	.	.	(24f#/	.	.	.	.
.	.	.	24g/	.	.	.	.
.	.	.	24a/	.	.	.	.
.	.	.	24g/	.	.	.	.
.	.	.	24f#/JJ)	.	.	.	.
4BB/	7	.	16d#X/KL	.	4b\	.	.
.	.	.	8cc/	.	.	.	.
.	.	.	(32b/LL	.	.	.	.
.	.	.	32a/JJJ)	.	.	.	.
=37	=37	=37	=37	=37	=37	=37	=37
*	*	*	*^	*	*	*	*
!	!	!	!LO:TX:a:t=P:problem=mixedbeam	!	!	!	!	!
4E\	.	2ryy	8.ee/L 8.b/	8.g\	2ryy	4b\	.	2ryy
.	.	.	16ddd\Jk	16ryy	.	.	.	.
*	*	*	*Xtuplet	*	*	*	*	*
8D#X\L	6 5	.	(24aa\LL	4ryy	.	4r	.	.
.	.	.	24ff#\)	.	.	.	.	.
.	.	.	24aa\JJ|	.	.	.	.	.
8E\J	.	.	24gg\LL	.	.	.	.	.
.	.	.	24ee\	.	.	.	.	.
.	.	.	24gg\JJ	.	.	.	.	.
*	*	*	*v	*v	*	*	*	*
!	!	!	!	!	!LO:LB:g=original	!	!
=38	=38	=38	=38	=38	=38	=38	=38
!	!	!	!	!	!	!LO:TX:b:i:t=Solo.	!
.	.	.	8qqgg/	.	.	.	.
4B\	#	2ryy	4ff#\	2ryy	4b\	8.dd#X\L	2ryy
.	.	.	.	.	.	16gg\Jk	.
8D#X\L	6 5	.	4r	.	4r	24ff#\LL	.
.	.	.	.	.	.	24dd#X\	.
.	.	.	.	.	.	24ff#\JJ	.
8E\J	.	.	.	.	.	24ee\LL	.
.	.	.	.	.	.	24b\	.
.	.	.	.	.	.	24ee\JJ	.
=39	=39	=39	=39	=39	=39	=39	=39
8BB/L	#	2ryy	24ff#\LL	2ryy	8b\L	4.dd#X\	2ryy
.	.	.	24dd#X\	.	.	.	.
.	.	.	24b\JJ	.	.	.	.
8BB/|	.	.	24dd#X\LL	.	16b\L	.	.
.	.	.	24ff#\	.	.	.	.
.	.	.	.	.	16b\JJ	.	.
!	!	!	!LO:SIC:v:t=custos aa	!	!	!	!
.	.	.	24bb\JJ	.	.	.	.
!	!	!	!LO:LB:g=original	!	!	!	!
8BB/|	7	.	(24aa\LL	.	8b\L	.	.
.	.	.	24ff#\)	.	.	.	.
.	.	.	24aa\JJ	.	.	.	.
8BB/J|	6 4	.	24gg\LL	.	8b\J	8ee\	.
.	.	.	24ee\	.	.	.	.
.	.	.	24gg\JJ	.	.	.	.
=40	=40	=40	=40	=40	=40	=40	=40
.	.	.	.	.	.	8qqee/	.
8BB/L|	#	2ryy	24ff#\LL	2ryy	8b\L	4.dd#X\	2ryy
.	.	.	24dd#X\	.	.	.	.
.	.	.	24b\JJ	.	.	.	.
8BB/|	.	.	24dd#\LL	.	16b\L	.	.
.	.	.	24ff#\	.	.	.	.
.	.	.	.	.	16b\JJ	.	.
.	.	.	24bb\JJ	.	.	.	.
8BB/|	7	.	(24aa\LL	.	8b\L	.	.
.	.	.	24ff#\)	.	.	.	.
.	.	.	24aa\JJ|	.	.	.	.
8BB/J|	6 4	.	24gg\LL	.	8b\J	8ee\	.
.	.	.	24ee\	.	.	.	.
.	.	.	24gg\JJ	.	.	.	.
=41	=41	=41	=41	=41	=41	=41	=41
8BB/L|	5 #	2ryy	24ff#\LL	2ryy	4b\	8dd#X\L	2ryy
.	.	.	24dd#X\	.	.	.	.
.	.	.	24ff#\JJ	.	.	.	.
8BB/|	.	.	24gg\LL	.	.	8ee\	.
.	.	.	24ee\	.	.	.	.
.	.	.	24gg\JJ	.	.	.	.
8BB/|	.	.	24aa\LL	.	4r	8ff#\	.
.	.	.	24ff#\	.	.	.	.
.	.	.	24aa\JJ	.	.	.	.
8BB/J|	.	.	24bb\LL	.	.	8gg\J	.
.	.	.	24gg\	.	.	.	.
.	.	.	24bb\JJ	.	.	.	.
=42	=42	=42	=42	=42	=42	=42	=42
*2\right	*	*	*2\right	*	*	*2\right	*
2D#X;\	7 5	2ryy	2ccc;\	2ryy	2cc;\	2ff#;\	2ryy
=43	=43	=43	=43	=43	=43	=43	=43
2r;	.	2ryy	2r;	2ryy	2r;	2r;	2ryy
!LO:LB:g=original	!	!	!	!	!	!	!
=44	=44	=44	=44	=44	=44	=44	=44
*	*	*	*tuplet	*	*	*tuplet	*
!	!	!	!LO:TX:a:t=P:problem=mixedbeam	!	!	!LO:TX:a:t=P:problem=mixedbeam	!
8r	.	2ryy	8ff#\L	2ryy	4r	8dd#X\L	2ryy
8F#\L	6|	.	[8a/J	.	.	[8f#/J	.
!	!	!	!LO:TUP:b	!	!	!LO:TUP:b	!
8E\	4 2	.	24a/LL]	.	8r	24f#/LL]	.
.	.	.	(24a/	.	.	(24f#/	.
.	.	.	24b/	.	.	24g/	.
8D#X\J	6 5	.	24cc/	.	8b\	24a/	.
.	.	.	24b/	.	.	24g/	.
.	.	.	24a/JJ)	.	.	24f#/JJ)	.
!	!	!	!	!	!	!LO:LB:g=original	!
=45	=45	=45	=45	=45	=45	=45	=45
8E\L	.	2ryy	(32g/KLL	2ryy	4b\	8e/L	2ryy
.	.	.	16.e/JJ)	.	.	.	.
8F#\	.	.	(32a/KLL	.	.	8b/J	.
.	.	.	16.f#/JJ)	.	.	.	.
8G\	6	.	(32b/KLL	.	4r	[4ee\	.
.	.	.	16.g/JJ)	.	.	.	.
8A\J	.	.	(32cc\KLL	.	.	.	.
.	.	.	16.a\JJ)	.	.	.	.
!	!	!	!LO:LB:g=original	!	!	!	!
=46	=46	=46	=46	=46	=46	=46	=46
!LO:TX:a:t=P:problem=mixedbeam	!	!	!	!	!	!	!
.	.	.	8qqa/	.	.	.	.
8B\L	6 4	2ryy	4g/	2ryy	4b\	4ee\]	2ryy
8B\	.	.	.	.	.	.	.
!	!	!	!LO:TX:a:t=t	!	!	!LO:TX:a:t=t	!
8BB/	7 #	.	4f#/	.	4b\	4dd#\	.
8BB/J	.	.	.	.	.	.	.
=47	=47	=47	=47	=47	=47	=47	=47
!	!	!	!LO:TX:a:t=P:problem=mixedbeam	!	!	!LO:TX:a:t=P:problem=mixedbeam	!
4E\	.	2ryy	8.ee/L 8.b/ 8.e/	2ryy	4b\	8ee\L	2ryy
.	.	.	.	.	.	[8b/J	.
.	.	.	16bb\Jk	.	.	.	.
*	*	*	*Xtuplet	*	*	*Xtuplet	*
!LO:TX:a:t=P:problem=mixedbeam	!	!	!	!	!	!	!
8B\L	6 4	.	(24gg\LL	.	4r	24b/LL]	.
.	.	.	24ee\)	.	.	24g/	.
.	.	.	24gg\JJ|	.	.	24b/JJ	.
8BB/J	7 #	.	24ff#\LL	.	.	24a/LL	.
.	.	.	24dd#X\	.	.	24f#/	.
.	.	.	24ff#\JJ	.	.	24a/JJ	.
=48	=48	=48	=48	=48	=48	=48	=48
.	.	.	.	.	.	8qqa/	.
4E\	.	2ryy	8.ee/L 8.b/ 8.e/	2ryy	4b\	4g/	2ryy
.	.	.	16b/Jk	.	.	.	.
!LO:TX:a:t=P:problem=mixedbeam	!	!	!	!	!	!	!
8B\L	6 4	.	(24g/LL	.	4r	4r	.
.	.	.	24e/)	.	.	.	.
.	.	.	24g/JJ|	.	.	.	.
8BB/J	7 #	.	24f#/LL	.	.	.	.
.	.	.	24d#X/	.	.	.	.
.	.	.	24f#/JJ	.	.	.	.
=49	=49	=49	=49	=49	=49	=49	=49
!LO:TX:a:t=P:problem=mixedbeam	!	!	!	!	!	!	!
8E\L	.	2ryy	8ee/ 8b/ 8e/	2ryy	8r	8r	2ryy
8C/J|	.	.	8c/L|	.	8cc\L|	8cc\|	.
8AA/L|	.	.	8A/|	.	8a\|	8a/L|	.
8BB/J|	#	.	8B/J|	.	8b\J|	8b/J|	.
!	!	!	!	!	!LO:LB:g=original	!	!
=50	=50	=50	=50	=50	=50	=50	=50
!LO:TX:b:i:t=Fine.	!	!	!LO:TX:b:i:t=Fine.	!	!LO:TX:b:i:t=fine	!LO:TX:b:i:t=Fine.	!
2EE/	.	2ryy	2ee/ 2b/ 2e/ 2B/	2ryy	2b\	2e/	2ryy
=:|!	=:|!	=:|!	=:|!	=:|!	=:|!	=:|!	=:|!
*-	*-	*-	*-	*-	*-	*-	*-
!!!system-decoration: [(g1)][(g2)][(g3)]s7
!!!AIN: 2 cor 2 oboe 1 organ 2 violn
!!!ENC: Berenika Jozajtis
!!!END: 2022-02-12
!!!EED: Andrzej Borzym
!!!EST: 2022-02-21
